!!!COM: Gioseffo Zarlino
!!!OPR: Le istitutioni harmoniche
!!!OTL: Canon at the unison after a minim with the cantus firmus as lowest voice.
!!!PPR: Francesco Senese
!!!PDT: 1573
!!!PPP: Venice
!!!ONB: Reprint ed., New York: Broude Bros., 1965.
!!!ONB: Transcribed from Denis Collins, "Zarlino and Berardi as Teachers of
!!!ONB: Canon", Theoria, Vol. 7 (1993) pp. 106-107.
**kern	**kern	**kern
*CF	*guida	*conseq
*k[]	*k[]	*k[]
*M4/2	*M4/2	*M4/2
=1-	=1-	=1-
1G	4g	2r
.	4f	.
.	4e	4g
.	4d	4f
1A	4c	4e
.	8B	4d
.	8A	.
.	2e	4c
.	.	8B
.	.	8A
=2	=2	=2
(1G	2B	2e
.	2d	2B
1F)	2A	2d
.	2d	2A
=3	=3	=3
1G	2B	2d
.	2e	2B
(1A	4c	2e
.	4d	.
.	4e	4c
.	4f	4d
=4	=4	=4
1G)	2.g	4e
.	.	4f
.	.	2.g
.	4f	.
1c	2e	.
.	.	4f
.	2a	2e
=5	=5	=5
1d	4f	2a
.	4g	.
.	4a	4f
.	4b	4g
1c	2cc	4a
.	.	4b
.	2g	2cc
=6	=6	=6
1c	4e	2g
.	4f	.
.	4g	4e
.	4a	4f
1G	2b	4g
.	.	4a
.	4r	2b
.	4e	.
=7	=7	=7
1A	4.c	4r
.	.	4e
.	8d	.
.	2.e	4.c
.	.	8d
1c	.	2.e
.	4A	.
.	2a	.
.	.	4A
=8	=8	=8
(1d	4.f	2a
.	8g	.
.	2a	4.f
.	.	8g
1c)	2e	2a
.	2a	2e
=9	=9	=9
1d	2f	2a
.	2r	2f
1e	4g	2r
.	4a	.
.	4b	4g
.	4cc	4a
=10	=10	=10
1d	2dd	4b
.	.	4cc
.	4a	2dd
.	4b	.
1c	4cc	4a
.	4b	4b
.	4a	4cc
.	4g	4b
=11	=11	=11
(1d	2f	4a
.	.	4g
.	4e	2f
.	4d	.
1e)	2.c	4e
.	.	4d
.	.	[2c
.	4d	.
=12	=12	=12
(1c	4e	4c]
.	4f	4d
.	2g	4e
.	.	4f
1B)	2d	2g
.	2r	2d
=13	=13	=13
(1A	2c	2r
.	2e	2c
1G)	2.g	2e
.	.	[2g
.	4f	.
=14	=14	=14
(1c	2e	4g]
.	.	4f
.	4a	2e
.	4g	.
1d)	4f	4a
.	4e	4g
.	4d	4f
.	4c	4e
=15	=15	=15
1G	2B	4d
.	.	4c
.	2e	2B
1A	2c	2e
.	[2e	2c
=16	=16	=16
1c	4e]	2.e
.	4f	.
.	2g	.
.	.	4f
(1B	2d	2g
.	4g	2d
.	4f	.
=17	=17	=17
1c)	4e	4g
.	4d	4f
.	2e	4e
.	.	4d
(1A	4c	2e
.	4d	.
.	4e	4c
.	4f	4d
=18	=18	=18
1G)	2g	4e
.	.	4f
.	4d	2g
.	4e	.
1F	4f	4d
.	4g	4e
.	[2a	4f
.	.	4g
=19	=19	=19
(1A	4a]	2.a
.	4g	.
.	4f	.
.	4e	4g
1B-)	2d	4f
.	.	4e
.	2f	2d
=20	=20	=20
1A	4.c	2f
.	8d	.
.	2e	4.c
.	.	8d
(1G	4.B	2e
.	8c	.
.	2d	4.B
.	.	8c
=21	=21	=21
1F)	2A	2d
.	2d	2A
1G	4.B	2d
.	8c	.
.	2d	4.B
.	.	8c
=22	=22	=22
0G	0B	0d
==	==	==
*-	*-	*-
!!!CDT: 1517/3/22-1590/2/14
!!!CNT: Italia
!!!ODT: <1573//
!!!YEP: David Huron and Denis Collins
!!!YEN: Canada
!!!AIN: vox; ?
!!!AST: polyphony
!!!RDT: 1995 July 3
!!!YED: 1995 August 31
!!!AFR: cantus firmus canon
!!!AMT: simple quadruple
!!!EEV: 1.0
